ui/images/cloud-failed-o.svg

<svg width="20" height="15" viewBox="0 0 20 15" xmlns="http://www.w3.org/2000/svg"><title>cloud-failed</title><g fill="none" fill-rule="evenodd"><path d="M17.434 5.657c.028-.218.066-.432.066-.657 0-2.76-2.238-5-5-5-1.633 0-3.07.795-3.982 2.007-.328-.08-.666-.132-1.018-.132-2.417 0-4.375 1.958-4.375 4.375 0 .068.017.13.02.198C1.332 6.98 0 8.638 0 10.625 0 13.042 1.958 15 4.375 15H15c2.762 0 5-2.238 5-5 0-1.873-1.04-3.486-2.566-4.343z" fill="#000"/><path d="M9.32 8.586L7.72 6.983l-.632-.633L8.35 5.086l.633.632 1.603 1.603L12.19 5.72l.63-.632 1.266 1.264-.632.633-1.604 1.603 1.604 1.603.632.63-1.265 1.266-.63-.632-1.604-1.604-1.603 1.604-.633.632-1.264-1.265.632-.63L9.32 8.585z" fill="#FFF"/></g></svg>

<?xml version="1.0" encoding="UTF-8" standalone="no"?>
<svg width="20px" height="15px" viewBox="0 0 20 15" version="1.1" xmlns="http://www.w3.org/2000/svg" xmlns:xlink="http://www.w3.org/1999/xlink" xmlns:sketch="http://www.bohemiancoding.com/sketch/ns">
    <!-- Generator: Sketch 3.3.3 (12072) - http://www.bohemiancoding.com/sketch -->
    <title>cloud-failed-o</title>
    <desc>Created with Sketch.</desc>
    <defs></defs>
    <g id="Page-1" stroke="none" stroke-width="1" fill="none" fill-rule="evenodd" sketch:type="MSPage">
        <g id="cloud-failed-o" sketch:type="MSLayerGroup" fill="#000000">
            <path d="M17.434,5.657 C17.462,5.439 17.5,5.225 17.5,5 C17.5,2.24 15.262,0 12.5,0 C10.867,0 9.43,0.795 8.518,2.007 C8.19,1.927 7.852,1.875 7.5,1.875 C5.083,1.875 3.125,3.833 3.125,6.25 C3.125,6.318 3.142,6.38 3.145,6.448 C1.332,6.98 0,8.638 0,10.625 C0,13.042 1.958,15 4.375,15 L15,15 C17.762,15 20,12.762 20,10 C20,8.127 18.96,6.514 17.434,5.657 Z M9.32,8.586 L7.72,6.983 L7.088,6.35 L8.35,5.086 L8.983,5.718 L10.586,7.321 L12.19,5.72 L12.82,5.088 L14.086,6.352 L13.454,6.985 L11.85,8.588 L13.454,10.191 L14.086,10.821 L12.821,12.087 L12.191,11.455 L10.587,9.851 L8.984,11.455 L8.351,12.087 L7.087,10.822 L7.719,10.192 L9.32,8.585 L9.32,8.586 Z" id="Shape" sketch:type="MSShapeGroup"></path>
        </g>
    </g>
</svg>
